X:56
T: Laemmerweide
N: A0056C
O: Europa, Mitteleuropa, Deutschland
N: "Herr Jesu Christe starcker Gott" Melodie: Wolfenbuettler Hs vom Jahr
N: 1596 (Cod.Aug. 76.13. fol. Bl. 185), vgl. Kommentar zu A0056B!
R: Romanze, Ballade, Lied
M: 4/1
L: 1/2
K: D
A4 | _B2A2B2d2 | =c2_B2A2
A2 | d2d2=c2A2 | _B2G2=F4 | =c4z2
A2 | =c2_BA2G | =FED2 | =C4z2
c2 | A2A2_B2=c2 | d4A4 |
z2d2=c2_B2 | A2G2=FDE2 | D4

@@@ Tune index: 56
